X: 11741
T: Eleanor Plunkett
R: waltz
M: 3/4
K: Aminor
V:1
GA|"G"B2 B2 AG|"G/B"G2 G2 ag|"C"e2 e2 ed|"Em"B4 AG|
V:2
GA|G2 G2 ED|B4 GA|c2 c2 ed|d4 cB|
V:1
"Am7"E2 A2 AB|"D"A4 ga|"Em" b2 ag ed|"C"e4 ef||
V:2
A2 c3e|d4 e2|g2 d2 B2|c4 c2||
V:1
"Em"g2 g2 b2|"D"a2 ba gf|"Em"g2 ag fe|"G"d2 B3d|
V:2
B2 e2 B2|d2 ed cB|c2 dc BA|B6|
V:1
"C"e2 g2 G2|"G"B4 AG|"Am7"E2 A2 AB|"D"A4||
V:2
c2 G2 e2|d4 cB|A2 c3e|d4||

